icons/arrow/arrow-right-2.svg

<svg width="14" height="14" viewBox="0 0 14 14" fill="none" xmlns="http://www.w3.org/2000/svg">
<path d="M8.64648 2.64651C8.84175 2.45125 9.15825 2.45125 9.35352 2.64651L11.707 5.00003L9.70703 7.00003L11.707 9.00003L9.35352 11.3535C9.15826 11.5488 8.84174 11.5488 8.64648 11.3535C8.45123 11.1583 8.45124 10.8418 8.64648 10.6465L9.79297 9.50003H3C2.72387 9.50003 2.50002 9.27616 2.5 9.00003C2.5 8.72389 2.72386 8.50003 3 8.50003H9.79297L8.64648 7.35355C8.6221 7.32916 8.60033 7.30312 8.58203 7.27542C8.54694 7.22229 8.52337 7.16381 8.51074 7.10355C8.50871 7.09389 8.50829 7.08399 8.50684 7.07425C8.50379 7.05378 8.50148 7.03337 8.50098 7.01273C8.50072 7.00262 8.50062 6.99255 8.50098 6.98245C8.50165 6.96382 8.50312 6.94527 8.50586 6.92679C8.50789 6.91302 8.51049 6.89936 8.51367 6.88577C8.51826 6.86625 8.52429 6.84712 8.53125 6.82816C8.53397 6.82073 8.53598 6.81301 8.53906 6.80569C8.547 6.78687 8.55704 6.76894 8.56738 6.75101C8.58883 6.7138 8.61467 6.67833 8.64648 6.64651L9.79297 5.50003H3C2.72387 5.50003 2.50002 5.27616 2.5 5.00003C2.5 4.72389 2.72386 4.50003 3 4.50003H9.79297L8.64648 3.35355L8.58203 3.27542C8.45387 3.08135 8.47564 2.81738 8.64648 2.64651Z" fill="red"/>
</svg>

<svg xmlns="http://www.w3.org/2000/svg" width="14" height="14" fill="none" viewBox="0 0 14 14"><path fill="red" d="M8.646 2.647a.5.5 0 0 1 .708 0L11.707 5l-2 2 2 2-2.353 2.354a.5.5 0 1 1-.708-.707L9.793 9.5H3a.5.5 0 0 1 0-1h6.793L8.646 7.354a.5.5 0 0 1-.135-.25l-.004-.03a.5.5 0 0 1 .024-.246l.008-.022.028-.055a.5.5 0 0 1 .08-.104L9.792 5.5H3a.5.5 0 0 1 0-1h6.793L8.646 3.354l-.064-.079a.5.5 0 0 1 .064-.628"/></svg>
